web/packages/design/src/ResourceIcon/assets/cloudflare.svg

<svg width="72" height="72" viewBox="0 0 72 72" fill="none" xmlns="http://www.w3.org/2000/svg">
<path d="M57.8026 33.3833C57.5612 33.3833 57.3232 33.3921 57.0851 33.3998C57.0465 33.4018 57.0086 33.4107 56.9732 33.4261C56.9102 33.4475 56.8535 33.4843 56.8083 33.5332C56.7631 33.582 56.7308 33.6414 56.7143 33.7058L55.694 37.2703C55.2541 38.8029 55.4175 40.2182 56.157 41.2571C56.835 42.2182 57.9628 42.7821 59.3319 42.8479L64.8667 43.1836C65.0313 43.1924 65.1739 43.2714 65.2606 43.4019C65.3059 43.4716 65.3346 43.5509 65.3443 43.6335C65.354 43.7161 65.3445 43.7998 65.3165 43.8781C65.2719 44.0054 65.1917 44.1172 65.0852 44.2001C64.9788 44.2829 64.8508 44.3334 64.7164 44.3454L58.9655 44.6812C55.841 44.826 52.4796 47.3756 51.3002 50.4848L50.8855 51.5819C50.8676 51.6273 50.8609 51.6764 50.8658 51.725C50.8707 51.7736 50.8872 51.8204 50.9138 51.8614C50.9404 51.9023 50.9764 51.9364 51.0188 51.9607C51.0612 51.9849 51.1088 51.9988 51.1576 52.001H70.9643C71.0795 52.0014 71.1916 51.9641 71.2835 51.8948C71.3755 51.8254 71.4422 51.7278 71.4733 51.617C71.8251 50.3525 72.0023 49.0458 71.9999 47.7333C71.9999 39.8123 65.6489 33.3921 57.8114 33.3921" fill="#FBAD41"/>
<path d="M49.158 51.5401L49.5244 50.251C49.9654 48.7184 49.802 47.3032 49.0636 46.2642C48.3834 45.3032 47.2567 44.7393 45.8865 44.6734L19.924 44.3377C19.8432 44.3362 19.764 44.3157 19.6927 44.2778C19.6214 44.2398 19.56 44.1856 19.5137 44.1194C19.4681 44.0498 19.4393 43.9706 19.4294 43.888C19.4195 43.8054 19.4288 43.7217 19.4566 43.6433C19.5016 43.5151 19.5827 43.4028 19.6902 43.3199C19.7977 43.2369 19.9269 43.1869 20.0622 43.1759L46.2672 42.8402C49.3785 42.6965 52.7399 40.1457 53.9193 37.0366L55.4135 33.087C55.4744 32.9196 55.4895 32.739 55.4574 32.5637C53.7548 24.8599 46.9441 19.0903 38.8015 19.0903C31.2953 19.0903 24.9267 23.9856 22.6415 30.7908C21.1029 29.6208 19.176 29.0817 17.2537 29.2834C13.6553 29.6455 10.759 32.5769 10.4013 36.2148C10.3087 37.1235 10.3756 38.0412 10.5988 38.9269C4.71843 39.1024 0.000976562 43.9713 0.000976562 49.9548C0.000976562 50.4957 0.0393745 51.0289 0.117267 51.5489C0.13277 51.6709 0.192265 51.783 0.284582 51.8642C0.376898 51.9454 0.495684 51.9901 0.618634 51.9899H48.5656C48.7006 51.9877 48.8312 51.9418 48.938 51.8592C49.0448 51.7765 49.122 51.6615 49.158 51.5314" fill="#F6821F"/>
</svg>

<svg xmlns="http://www.w3.org/2000/svg" width="72" height="72" fill="none" viewBox="0 0 72 72"><path fill="#fbad41" d="M57.803 33.383c-.242 0-.48.01-.718.017a.3.3 0 0 0-.112.026.4.4 0 0 0-.259.28l-1.02 3.564c-.44 1.533-.277 2.948.463 3.987.678.961 1.806 1.525 3.175 1.59l5.535.337a.496.496 0 0 1 .477.45.54.54 0 0 1-.027.244.7.7 0 0 1-.6.467l-5.751.336c-3.125.145-6.486 2.695-7.666 5.804l-.414 1.097a.306.306 0 0 0 .272.419h19.806a.53.53 0 0 0 .51-.384c.351-1.264.528-2.571.526-3.884 0-7.92-6.351-14.34-14.189-14.34"/><path fill="#f6821f" d="m49.158 51.54.366-1.289c.441-1.533.278-2.948-.46-3.987-.68-.96-1.807-1.525-3.178-1.59l-25.962-.336a.51.51 0 0 1-.41-.219.54.54 0 0 1-.057-.476.7.7 0 0 1 .605-.467l26.205-.336c3.111-.144 6.473-2.694 7.652-5.803l1.495-3.95c.06-.167.075-.348.043-.523-1.702-7.704-8.513-13.474-16.656-13.474-7.506 0-13.874 4.896-16.16 11.7a7.6 7.6 0 0 0-5.387-1.507c-3.599.362-6.495 3.294-6.853 6.932a7.8 7.8 0 0 0 .198 2.712C4.719 39.102 0 43.97 0 49.955q0 .812.116 1.594a.505.505 0 0 0 .502.44h47.947a.625.625 0 0 0 .592-.458"/></svg>
